X: 79
T: Altın Tasta Gül Kuruttum
C: Nimet Hanım
O: Turkey
F: http://compmusic.upf.edu/node/140
N: acemkurdi--sarki--aksak--altin_tasta--nimet_hanim
N: makam= acemkurdi
N: form= sarki
N: usul= aksak = 9/8
M: 9/8
L: 1/16
K: C _B   
Q: 1/4=204
%%MIDI tuningsystem comma53
z4 _e2d2 c2BA A6 | _e6 d2c3/2_2/4B/ c2d4g2  | \
w:   |   | 
f_edc d2{f}ed cBBA A6 | 
w:   | 
_2/4B2 c2d2 _edc_B BAA6  | z4 _e2d2 c2BA A6 | \
w:   |   | 
_e6 d2c3/2_2/4B/ c2d4g2  | 
w:   | 
f_edc d2{f}ed cBBA A6 | _2/4B2 c2d2 _edc_B BAA3f=eg  | 
w:   |   | 
f4 d2e2 f2{g}fe f6 | a6 g2f3ed2 dcde  | \
w:  *  Al tın  tas *  *  *  ta   |  gül  ku rut tum_ a man_ *  A  | 
c4 d2e2 f2{g}fe f6 | 
w:  lim   Al tın  tas *  *  *  ta   | 
a6 g2f3ed2 dcde  | c4 _e2d2 c2B2 A6 | \
w:  gül  ku rut tum_ a man_ *  A  |  lim   Yâ ri  sî *  nem  | 
_e6 d2c_2/4B c2d4g2  | 
w:  de  u yut *  *  tum_ A  | 
f_edc d2{f}ed cBBA A6 | _2/4B2 c2d2 _edc_B BAA3f=eg  | 
w:  lim   *  *  *  Yâ *  ri  *  sî *  *  *  nem  |  de  *  *  u *  yut *  *  *  tum   SAZ  | 
f4 d2e2 f2{g}fe f6 | a6 g2f3ed2 dcde  | \
w:  *  Yâr  söy le *  *  *  di   |  ben  u nut tum  a man_ *  A  | 
c4 d2e2 f2{g}fe f6 | 
w:  lim   Yâr  söy le *  *  *  di   | 
a6 g2f3ed2 dcde  | c4 _e2d2 c2B2 A6 | \
w:  ben  u nut tum  a man_ *  A  |  lim   Gö nül_ e *  fen  | 
_e6 d2c_2/4B c2d4g2  | 
w:  di ni  bul *  *  du  A  | 
f_edc d2{f}ed cBBA A6 | _2/4B2 c2d2 _edc_B BAA6  | 
w:  lim   *  *  *  Sa *  çı  *  Ley *  *  *  lâ  |  ya  *  *  vu *  rul *  *  *  du    | 
z4 _e2d2 c2B2 A6 | _e6 d2c_2/4B c2d4g2  | \
w:  Gö nül_ e *  fen  |  di ni  bul *  *  du  A  | 
f_edc d2{f}ed cBBA A6 | 
w:  lim   *  *  *  Sa *  çı  *  Ley *  *  *  lâ  | 
_2/4B2 c2d2 _edc_B BAA6  | z4 _e2d2 c2BA A6 | \
w:  ya  *  *  vu *  rul *  *  *  du    |   | 
_e6 d2c3/2_2/4B/ c2d4g2  | 
w:   | 
f_edc d2{f}ed cBBA A6 | _2/4B2 c2d2 _edc_B BAA6  | 
w:   |   | 
z4 _e2d2 c2BA A6 | _e6 d2c3/2_2/4B/ c2d4g2  | \
w:   |   | 
f_edc d2{f}ed cBBA A6 | 
w:   | 
_2/4B2 c2d2 _edc_B BAA3f=eg  | f4 d2e2 f2{g}fe f6 | \
w:   |  *  Al tın  tas *  *  *  ta   | 
a6 g2f3ed2 dcde  | 
w:  gül  ku rut tum_ a man_ *  A  | 
c4 d2e2 f2{g}fe f6 | a6 g2f3ed2 dcde  | \
w:  lim   Al tın  tas *  *  *  ta   |  gül  ku rut tum_ a man_ *  A  | 
c4 _e2d2 c2B2 A6 | 
w:  lim   Yâ ri  sî *  nem  | 
_e6 d2c_2/4B c2d4g2  | f_edc d2{f}ed cBBA A6 | \
w:  de  u yut *  *  tum_ A  |  lim   *  *  *  Yâ *  ri  *  sî *  *  *  nem  | 
_2/4B2 c2d2 _edc_B BAA3f=eg  | 
w:  de  *  *  u *  yut *  *  *  tum   SAZ  | 
f4 d2e2 f2{g}fe f6 | a6 g2f3ed2 dcde  | \
w:  *  Yâr  söy le *  *  *  di   |  ben  u nut tum  a man_ *  A  | 
c4 d2e2 f2{g}fe f6 | 
w:  lim   Yâr  söy le *  *  *  di   | 
a6 g2f3ed2 dcde  | c4 _e2d2 c2B2 A6 | \
w:  ben  u nut tum  a man_ *  A  |  lim   Gö nül_ e *  fen  | 
_e6 d2c_2/4B c2d4g2  | 
w:  di ni  bul *  *  du  A  | 
f_edc d2{f}ed cBBA A6 | _2/4B2 c2d2 _edc_B BAA6  | 
w:  lim   *  *  *  Sa *  çı  *  Ley *  *  *  lâ  |  ya  *  *  vu *  rul *  *  *  du    | 
z4 _e2d2 c2B2 A6 | _e6 d2c_2/4B c2d4g2  | \
w:  Gö nül_ e *  fen  |  di ni  bul *  *  du  A  | 
f_edc d2{f}ed cBBA A6 | 
w:  lim   *  *  *  Sa *  çı  *  Ley *  *  *  lâ  | 
_2/4B2 c2d2 _edc_B BAA6  | |


